assets/img/cds-secured-document.svg

<svg fill="none" height="497" viewBox="0 0 477 497" width="477" xmlns="http://www.w3.org/2000/svg" xmlns:xlink="http://www.w3.org/1999/xlink"><linearGradient id="a"><stop offset="0" stop-color="#199dff"/><stop offset="1" stop-color="#0083e4"/></linearGradient><linearGradient id="b" gradientUnits="userSpaceOnUse" x1="238.01" x2="238.01" xlink:href="#a" y1="0" y2="496.715"/><linearGradient id="c" gradientUnits="userSpaceOnUse" x1="242.683" x2="242.683" xlink:href="#a" y1="71.1699" y2="129.9"/><linearGradient id="d" gradientUnits="userSpaceOnUse" x1="201.33" x2="201.33" xlink:href="#a" y1="203.713" y2="252.444"/><linearGradient id="e" gradientUnits="userSpaceOnUse" x1="221.998" x2="221.998" xlink:href="#a" y1="138.327" y2="190.302"/><linearGradient id="f" gradientUnits="userSpaceOnUse" x1="173.427" x2="173.427" xlink:href="#a" y1="265.463" y2="310.009"/><linearGradient id="g" gradientUnits="userSpaceOnUse" x1="359.622" x2="359.622" xlink:href="#a" y1="381.218" y2="406.093"/><linearGradient id="h" gradientUnits="userSpaceOnUse" x1="361.253" x2="361.253" xlink:href="#a" y1="288.646" y2="443.27"/><path d="m.183482 417.218c.054687 3.105 2.566398 5.606 5.667998 5.652 15.69102.227 31.29702.332 46.77702.332 70.3315 0 137.8295-2.16 197.0495-4.476 11.906 34.363 42.668 62.398 76.062 72.906 41.289 12.988 89.559.508 119.24-30.836 24.973-26.371 35.664-64.973 29.188-100.48-4.496-59.559-55.062-108.09-118.42-105.79 14.938-71.652 26.352-110.93 39.945-188.8403.52-2.9805-1.359-5.8594-4.3-6.5781-91.363-22.383-182.05-38.277-277.04-58.979974-1.606-.33984-3.286.003907-4.614.972664-1.328.96875-2.179 2.46089-2.336 4.09769-1.625 16.87502-3.71 33.14102-6.125 48.70702-30.9335.1914-62.7655.3672-95.17552.0781-1.6289-.1758-3.2227.6758-4.3281 1.8984-1.101602 1.2266-1.6289 2.8633-1.4414 4.5 8.5078 75.5395 5.6992 148.7305 2.6406 224.5305-1.7578 43.426-3.5703 88.328-2.7852 132.3zm245.259518-9.844c-3.582.141-7.14.278-10.785.414l2.098-2c2.895.524 5.797 1.071 8.688 1.586zm217.651-38.379c0 56.102-45.7 103.17-103.171 103.17-56.891 0-103.17-46.281-103.17-103.17 0-52.582 39.566-96.02 90.477-102.31.043.012.075.039.114.051 1.187.242 2.328 0 3.371-.445 61.156-5.446 112.38 42.926 112.38 102.7zm-344.891-356.2498c90.676 19.609 177.98 35.121 265.21 56.273-13.367 75.4178-24.551 113.7098-39.652 186.5698-55.59 7.895-98.52 55.668-98.52 113.41 0 9.41 1.266 18.508 3.411 27.266-67.562-12.039-134.37-25.547-202.7503-40.898 21.902-112.35 59.6023-219.48 72.3013-342.6198zm-105.7495 52.801c25.734.1953 50.969.082 75.781-.0625-10.191 42.4573-67 284.5103-60.297 300.3603 5.6367 13.32 121.5295 34.172 174.7095 43.09-59.152 1.98-124.3695 3.375-191.0495 2.511-.5391-41.875 1.1836-84.645 2.8594-126.06 2.9844-73.992 5.7422-145.84-2.0039-219.8296z" fill="url(#b)"/><path d="m150.254 82.498c192.92 49.957 182.03 47.379 183.44 47.379 6.742 0 7.925-9.641 1.441-11.324l-181.99-47.1949c-3.109-.8047-6.215 1.0469-7.016 4.125-.797 3.082 1.051 6.2188 4.125 7.0156z" fill="url(#c)"/><path d="m112.163 215.098c186.48 39.379 176 37.328 177.17 37.328 6.848 0 7.93-9.953 1.184-11.383l-175.97-37.207c-3.102-.648-6.16 1.324-6.82 4.438-.657 3.109 1.328 6.164 4.437 6.824z" fill="url(#d)"/><path d="m133.094 149.678c186.84 43.066 175.29 40.598 176.55 40.598 6.82 0 7.918-9.828 1.289-11.359l-175.26-40.449c-3.086-.692-6.184 1.222-6.899 4.316-.715 3.09 1.215 6.18 4.313 6.895z" fill="url(#e)"/><path d="m98.9934 269.478c-.957 3.031.7148 6.262 3.7456 7.223 45.238 14.332 91.918 25.504 138.74 33.211 7.563 1.262 9.332-10.125 1.868-11.355-46.281-7.613-92.418-18.656-137.13-32.82-3.036-.969-6.2698.715-7.2269 3.742z" fill="url(#f)"/><path d="m359.624 381.218c-3.883 0-7.036 3.148-7.036 7.035 0 3.019 1.922 5.543 4.59 6.539v11.301h5.035v-11.332c2.598-1.035 4.442-3.543 4.442-6.512 0-3.879-3.149-7.031-7.031-7.031z" fill="url(#g)"/><path d="m317.673 335.168c-.515 8.445-.261 19.348-.265 30.434-10.184 17.207-9.238 38.27.183 53.508 7.887 12.75 25.309 24.16 44.246 24.16 36.105 0 58.879-35.512 47.641-67.289-1.785-5.047-4.515-9.742-7.871-13.988.153-16.375 3.368-37.484-6.406-54.078-18.305-30.641-74.172-26.977-77.527 27.254zm69.469 87.523c-11.93 10.16-30.461 11.945-44.055 4.262-7.668-4.332-12.367-8.489-15.715-13.898-4.925-7.969-7.003-19.723-5.054-28.586 9.265-42.18 64.012-39.387 76.309-4.653 5.219 14.754.387 32.781-11.484 42.875zm-.058-105.32c4.551 11.359 3.754 22.16 3.32 34.059-18.867-13.234-43.578-13.027-61.539 1.121-.047-11.875-.285-22.543 3.516-32.59 9.988-26.625 45.266-25.25 54.703-2.59z" fill="url(#h)"/></svg>

<svg width="477" height="497" viewBox="0 0 477 497" fill="none" xmlns="http://www.w3.org/2000/svg">
<path d="M0.183482 417.218C0.238169 420.323 2.74988 422.824 5.85148 422.87C21.5425 423.097 37.1485 423.202 52.6285 423.202C122.96 423.202 190.458 421.042 249.678 418.726C261.584 453.089 292.346 481.124 325.74 491.632C367.029 504.62 415.299 492.14 444.98 460.796C469.953 434.425 480.644 395.823 474.168 360.316C469.672 300.757 419.106 252.226 355.748 254.526C370.686 182.874 382.1 143.596 395.693 65.6857C396.213 62.7052 394.334 59.8263 391.393 59.1076C300.03 36.7246 209.343 20.8306 114.353 0.127626C112.747 -0.212214 111.067 0.131533 109.739 1.10029C108.411 2.06904 107.56 3.56118 107.403 5.19798C105.778 22.073 103.693 38.339 101.278 53.905C70.3445 54.0964 38.5125 54.2722 6.10248 53.9831C4.47358 53.8073 2.87978 54.6589 1.77438 55.8815C0.672778 57.1081 0.14548 58.7448 0.33298 60.3815C8.84078 135.921 6.03218 209.112 2.97358 284.912C1.21578 328.338 -0.59672 373.24 0.18838 417.212L0.183482 417.218ZM245.443 407.374C241.861 407.515 238.303 407.652 234.658 407.788L236.756 405.788C239.651 406.312 242.553 406.859 245.444 407.374L245.443 407.374ZM463.094 368.995C463.094 425.097 417.394 472.165 359.923 472.165C303.032 472.165 256.753 425.884 256.753 368.995C256.753 316.413 296.319 272.975 347.23 266.685C347.273 266.697 347.305 266.724 347.344 266.736C348.531 266.978 349.672 266.736 350.715 266.291C411.871 260.845 463.095 309.217 463.095 368.991L463.094 368.995ZM118.203 12.7452C208.879 32.3542 296.183 47.8662 383.413 69.0182C370.046 144.436 358.862 182.728 343.761 255.588C288.171 263.483 245.241 311.256 245.241 368.998C245.241 378.408 246.507 387.506 248.652 396.264C181.09 384.225 114.282 370.717 45.9017 355.366C67.8037 243.016 105.504 135.886 118.203 12.7462L118.203 12.7452ZM12.4535 65.5462C38.1875 65.7415 63.4225 65.6282 88.2345 65.4837C78.0435 107.941 21.2345 349.994 27.9375 365.844C33.5742 379.164 149.467 400.016 202.647 408.934C143.495 410.914 78.2775 412.309 11.5975 411.445C11.0584 369.57 12.7811 326.8 14.4569 285.385C17.4413 211.393 20.1991 139.545 12.453 65.5554L12.4535 65.5462Z" fill="url(#paint0_linear_4015_616)"/>
<path d="M150.254 82.498C343.174 132.455 332.284 129.877 333.694 129.877C340.436 129.877 341.619 120.236 335.135 118.553L153.145 71.3581C150.036 70.5534 146.93 72.405 146.129 75.4831C145.332 78.5651 147.18 81.7019 150.254 82.4987L150.254 82.498Z" fill="url(#paint1_linear_4015_616)"/>
<path d="M112.163 215.098C298.643 254.477 288.163 252.426 289.333 252.426C296.181 252.426 297.263 242.473 290.517 241.043L114.547 203.836C111.445 203.188 108.387 205.16 107.727 208.274C107.07 211.383 109.055 214.438 112.164 215.098L112.163 215.098Z" fill="url(#paint2_linear_4015_616)"/>
<path d="M133.094 149.678C319.934 192.744 308.384 190.276 309.644 190.276C316.464 190.276 317.562 180.448 310.933 178.917L135.673 138.468C132.587 137.776 129.489 139.69 128.774 142.784C128.059 145.874 129.989 148.964 133.087 149.679L133.094 149.678Z" fill="url(#paint3_linear_4015_616)"/>
<path d="M98.9934 269.478C98.0364 272.509 99.7082 275.74 102.739 276.701C147.977 291.033 194.657 302.205 241.479 309.912C249.042 311.174 250.811 299.787 243.347 298.557C197.066 290.944 150.929 279.901 106.217 265.737C103.181 264.768 99.9472 266.452 98.9901 269.479L98.9934 269.478Z" fill="url(#paint4_linear_4015_616)"/>
<path d="M359.624 381.218C355.741 381.218 352.588 384.366 352.588 388.253C352.588 391.272 354.51 393.796 357.178 394.792V406.093H362.213V394.761C364.811 393.726 366.655 391.218 366.655 388.249C366.655 384.37 363.506 381.218 359.624 381.218V381.218Z" fill="url(#paint5_linear_4015_616)"/>
<path d="M317.673 335.168C317.158 343.613 317.412 354.516 317.408 365.602C307.224 382.809 308.17 403.872 317.591 419.11C325.478 431.86 342.9 443.27 361.837 443.27C397.942 443.27 420.716 407.758 409.478 375.981C407.693 370.934 404.963 366.239 401.607 361.993C401.76 345.618 404.975 324.509 395.201 307.915C376.896 277.274 321.029 280.938 317.674 335.169L317.673 335.168ZM387.142 422.691C375.212 432.851 356.681 434.636 343.087 426.953C335.419 422.621 330.72 418.464 327.372 413.055C322.447 405.086 320.369 393.332 322.318 384.469C331.583 342.289 386.33 345.082 398.627 379.816C403.846 394.57 399.014 412.597 387.143 422.691L387.142 422.691ZM387.084 317.371C391.635 328.73 390.838 339.531 390.404 351.43C371.537 338.196 346.826 338.403 328.865 352.551C328.818 340.676 328.58 330.008 332.381 319.961C342.369 293.336 377.647 294.711 387.084 317.371L387.084 317.371Z" fill="url(#paint6_linear_4015_616)"/>
<defs>
<linearGradient id="paint0_linear_4015_616" x1="238.01" y1="0" x2="238.01" y2="496.715" gradientUnits="userSpaceOnUse">
<stop stop-color="#199DFF"/>
<stop offset="1" stop-color="#0083E4"/>
</linearGradient>
<linearGradient id="paint1_linear_4015_616" x1="242.683" y1="71.1699" x2="242.683" y2="129.9" gradientUnits="userSpaceOnUse">
<stop stop-color="#199DFF"/>
<stop offset="1" stop-color="#0083E4"/>
</linearGradient>
<linearGradient id="paint2_linear_4015_616" x1="201.33" y1="203.713" x2="201.33" y2="252.444" gradientUnits="userSpaceOnUse">
<stop stop-color="#199DFF"/>
<stop offset="1" stop-color="#0083E4"/>
</linearGradient>
<linearGradient id="paint3_linear_4015_616" x1="221.998" y1="138.327" x2="221.998" y2="190.302" gradientUnits="userSpaceOnUse">
<stop stop-color="#199DFF"/>
<stop offset="1" stop-color="#0083E4"/>
</linearGradient>
<linearGradient id="paint4_linear_4015_616" x1="173.427" y1="265.463" x2="173.427" y2="310.009" gradientUnits="userSpaceOnUse">
<stop stop-color="#199DFF"/>
<stop offset="1" stop-color="#0083E4"/>
</linearGradient>
<linearGradient id="paint5_linear_4015_616" x1="359.622" y1="381.218" x2="359.622" y2="406.093" gradientUnits="userSpaceOnUse">
<stop stop-color="#199DFF"/>
<stop offset="1" stop-color="#0083E4"/>
</linearGradient>
<linearGradient id="paint6_linear_4015_616" x1="361.253" y1="288.646" x2="361.253" y2="443.27" gradientUnits="userSpaceOnUse">
<stop stop-color="#199DFF"/>
<stop offset="1" stop-color="#0083E4"/>
</linearGradient>
</defs>
</svg>
